assets/svg/1F435.svg

<svg xmlns="http://www.w3.org/2000/svg" viewBox="0 0 64 64" enable-background="new 0 0 64 64"><g fill="#895a37"><path d="m15.338 13.659c0 4.23-3.427 6.544-7.66 6.544-4.231 0-7.658-2.314-7.658-6.544 0-4.231 3.427-9 7.658-9 4.233 0 7.66 4.769 7.66 9"/><path d="m48.43 13.659c0 4.23 3.428 6.544 7.66 6.544 4.231 0 7.658-2.314 7.658-6.544 0-4.231-3.427-9-7.658-9-4.233 0-7.66 4.769-7.66 9"/><path d="m62.799 36.23c0 16.925-13.723 26.18-30.646 26.18-16.927 0-30.647-9.258-30.647-26.18 0-16.924 13.72-36 30.647-36 16.923 0 30.646 19.08 30.646 36"/></g><g fill="#c1976b"><path d="m53.9 43.991c0 11.911-9.656 18.425-21.564 18.425-11.91 0-21.567-6.514-21.567-18.425 0-11.909 9.657-25.333 21.567-25.333 11.908 0 21.564 13.424 21.564 25.333"/><path d="m35.523 29.485c0 8.02-6.5 12.402-14.516 12.402s-14.514-4.386-14.514-12.402c0-8.02 6.498-17.05 14.514-17.05s14.516 9.04 14.516 17.05"/><path d="m57.805 29.485c0 8.02-6.502 12.402-14.517 12.402-8.02 0-14.518-4.386-14.518-12.402 0-8.02 6.5-17.05 14.518-17.05 8.02 0 14.517 9.04 14.517 17.05"/></g><path fill="#774e2b" d="m35.535 42.24c0 1.607-1.364 1.58-3.23 1.58-1.872 0-3.534.027-3.534-1.58 0-1.616 1.516-2.921 3.388-2.921 1.864 0 3.376 1.305 3.376 2.921"/><path fill="#633f1a" d="m45.35 48.648c0 5.835-5.829 10.562-13.01 10.562-7.181 0-13.02-4.728-13.02-10.562"/><path fill="#fff" d="m27.671 29.344c0 5.511-2.979 9.977-6.664 9.977-3.678 0-6.666-4.466-6.666-9.977 0-5.514 2.987-9.979 6.666-9.979 3.684 0 6.664 4.465 6.664 9.979"/><path fill="#25333a" d="m25.357 28.796c0 2.917-1.942 5.277-4.35 5.277-2.405 0-4.354-2.361-4.354-5.277 0-2.914 1.948-5.279 4.354-5.279 2.408 0 4.35 2.365 4.35 5.279"/><path fill="#fff" d="m49.545 29.344c0 5.511-2.979 9.977-6.663 9.977-3.68 0-6.665-4.466-6.665-9.977 0-5.514 2.985-9.979 6.665-9.979 3.683 0 6.663 4.465 6.663 9.979"/><path fill="#25333a" d="m47.23 28.796c0 2.917-1.944 5.277-4.352 5.277-2.405 0-4.354-2.361-4.354-5.277 0-2.914 1.948-5.279 4.354-5.279 2.408 0 4.352 2.365 4.352 5.279"/></svg>

<?xml version="1.0" encoding="UTF-8" standalone="no"?>
<!-- Generator: Adobe Illustrator 16.0.0, SVG Export Plug-In . SVG Version: 6.00 Build 0)  -->

<svg
   xmlns:dc="http://purl.org/dc/elements/1.1/"
   xmlns:cc="http://creativecommons.org/ns#"
   xmlns:rdf="http://www.w3.org/1999/02/22-rdf-syntax-ns#"
   xmlns:svg="http://www.w3.org/2000/svg"
   xmlns="http://www.w3.org/2000/svg"
   xmlns:sodipodi="http://sodipodi.sourceforge.net/DTD/sodipodi-0.dtd"
   xmlns:inkscape="http://www.inkscape.org/namespaces/inkscape"
   version="1.1"
   id="Layer_1"
   x="0px"
   y="0px"
   width="64px"
   height="64px"
   viewBox="0 0 64 64"
   enable-background="new 0 0 64 64"
   xml:space="preserve"
   inkscape:version="0.48.5 r10040"
   sodipodi:docname="1F435.svg"
   inkscape:export-filename="D:\TESTINGEMOJI\SVGTEST\1F435.png"
   inkscape:export-xdpi="90"
   inkscape:export-ydpi="90"><metadata
   id="metadata5955"><rdf:RDF><cc:Work
       rdf:about=""><dc:format>image/svg+xml</dc:format><dc:type
         rdf:resource="http://purl.org/dc/dcmitype/StillImage" /><dc:title></dc:title></cc:Work></rdf:RDF></metadata><defs
   id="defs5953" /><sodipodi:namedview
   pagecolor="#ffffff"
   bordercolor="#666666"
   borderopacity="1"
   objecttolerance="10"
   gridtolerance="10"
   guidetolerance="10"
   inkscape:pageopacity="0"
   inkscape:pageshadow="2"
   inkscape:window-width="640"
   inkscape:window-height="480"
   id="namedview5951"
   showgrid="false"
   inkscape:zoom="3.6875"
   inkscape:cx="32"
   inkscape:cy="32"
   inkscape:window-x="394"
   inkscape:window-y="244"
   inkscape:window-maximized="0"
   inkscape:current-layer="Layer_1" />
<g
   id="g5925">
	<path
   fill="#895A37"
   d="M15.338,13.659c0,4.23-3.427,6.544-7.66,6.544c-4.231,0-7.658-2.314-7.658-6.544c0-4.231,3.427-9,7.658-9   C11.911,4.659,15.338,9.428,15.338,13.659z"
   id="path5927" />
	<path
   fill="#895A37"
   d="M48.432,13.659c0,4.23,3.428,6.544,7.66,6.544c4.231,0,7.658-2.314,7.658-6.544c0-4.231-3.427-9-7.658-9   C51.859,4.659,48.432,9.428,48.432,13.659z"
   id="path5929" />
	<path
   fill="#895A37"
   d="M62.799,36.233c0,16.925-13.723,26.183-30.646,26.183c-16.927,0-30.647-9.258-30.647-26.183   c0-16.924,13.72-36,30.647-36C49.076,0.233,62.799,19.31,62.799,36.233z"
   id="path5931" />
	<path
   fill="#C1976B"
   d="M53.9,43.991c0,11.911-9.656,18.425-21.564,18.425c-11.91,0-21.567-6.514-21.567-18.425   c0-11.909,9.657-25.333,21.567-25.333C44.244,18.658,53.9,32.082,53.9,43.991z"
   id="path5933" />
	<path
   fill="#C1976B"
   d="M35.523,29.485c0,8.016-6.5,12.402-14.516,12.402S6.493,37.501,6.493,29.485   c0-8.017,6.498-17.054,14.514-17.054S35.523,21.468,35.523,29.485z"
   id="path5935" />
	<path
   fill="#C1976B"
   d="M57.805,29.485c0,8.016-6.502,12.402-14.517,12.402c-8.018,0-14.518-4.386-14.518-12.402   c0-8.017,6.5-17.054,14.518-17.054C51.303,12.431,57.805,21.468,57.805,29.485z"
   id="path5937" />
	<path
   fill="#774E2B"
   d="M35.535,42.241c0,1.607-1.364,1.58-3.23,1.58c-1.872,0-3.534,0.027-3.534-1.58   c0-1.616,1.516-2.921,3.388-2.921C34.023,39.32,35.535,40.625,35.535,42.241z"
   id="path5939" />
	<path
   fill="#633F1A"
   d="M45.348,48.648c0,5.835-5.829,10.562-13.012,10.562c-7.181,0-13.016-4.728-13.016-10.562"
   id="path5941" />
	<path
   fill="#FFFFFF"
   d="M27.671,29.344c0,5.511-2.979,9.977-6.664,9.977c-3.678,0-6.666-4.466-6.666-9.977   c0-5.514,2.987-9.979,6.666-9.979C24.691,19.365,27.671,23.83,27.671,29.344z"
   id="path5943" />
	<path
   fill="#25333A"
   d="M25.357,28.796c0,2.917-1.942,5.277-4.35,5.277c-2.405,0-4.354-2.361-4.354-5.277   c0-2.914,1.948-5.279,4.354-5.279C23.415,23.517,25.357,25.882,25.357,28.796z"
   id="path5945" />
	<path
   fill="#FFFFFF"
   d="M49.545,29.344c0,5.511-2.979,9.977-6.663,9.977c-3.68,0-6.665-4.466-6.665-9.977   c0-5.514,2.985-9.979,6.665-9.979C46.565,19.365,49.545,23.83,49.545,29.344z"
   id="path5947" />
	<path
   fill="#25333A"
   d="M47.233,28.796c0,2.917-1.944,5.277-4.352,5.277c-2.405,0-4.354-2.361-4.354-5.277   c0-2.914,1.948-5.279,4.354-5.279C45.289,23.517,47.233,25.882,47.233,28.796z"
   id="path5949" />
</g>
</svg>
